app/_includes/svgs/technology-logos/logo_backbone.min.svg

<svg xmlns="http://www.w3.org/2000/svg" viewBox="0 0 150 100" enable-background="new 0 0 150 100"><g fill-rule="evenodd" clip-rule="evenodd"><path fill="#0372B4" d="M36.5 20.7v14.1l-24.3 14.2v20.4c1.6-.9 24.3-14 24.3-14v14l-36.4 20.9-.1-48.7 36.5-20.9"/><path fill="#0372B4" d="M73 0v41.6l-12.1-6.9v-13.7l-12.3 6.7-12.1-7z"/><path fill="#012B42" d="M36.5 69.5v-14l24.3 13.8v-20.4l-24.3-14.1v-14.1l36.5 20.9v48.6z"/><path fill="#012B42" d="M24.3 27.7l-12.1-6.9v13.9l-12.2 6.9v-41.6s24.8 14 36.4 20.7l-12.1 7z"/><path fill="#012B42" d="M18.6 45.2l17.9 10.3-12.2 7-12.1-7v-6.5z"/><path fill="#0372B4" d="M36.5 55.5l18-10.3 6.4 3.7v6.7l-12 6.9-12.4-7z"/></g></svg>

<svg xmlns="http://www.w3.org/2000/svg" viewBox="0 0 150 100" enable-background="new 0 0 150 100"><g fill-rule="evenodd" clip-rule="evenodd"><path fill="#0372B4" d="M36.5 20.7v14.1L12.2 49v20.4c1.6-.9 24.3-14 24.3-14v14L.1 90.3 0 41.6l36.5-20.9"/><path fill="#0372B4" d="M73 0v41.6l-12.1-6.9V21l-12.3 6.7-12.1-7z"/><path fill="#012B42" d="M36.5 69.5v-14l24.3 13.8V48.9L36.5 34.8V20.7L73 41.6v48.6z"/><path fill="#012B42" d="M24.3 27.7l-12.1-6.9v13.9L0 41.6V0s24.8 14 36.4 20.7l-12.1 7z"/><path fill="#012B42" d="M18.6 45.2l17.9 10.3-12.2 7-12.1-7V49z"/><path fill="#0372B4" d="M36.5 55.5l18-10.3 6.4 3.7v6.7l-12 6.9-12.4-7z"/></g></svg>
